assets/images/instagram.svg

<svg width="23" height="23" viewBox="0 0 23 23" fill="none" xmlns="http://www.w3.org/2000/svg">
<g clip-path="url(#clip0_61_3259)">
<path d="M21.7199 4.55124C21.4096 3.81975 20.95 3.16106 20.3706 2.61727C19.8139 2.07545 19.1621 1.64091 18.4479 1.33545C17.6168 1.04809 16.7507 0.874114 15.873 0.818229H7.10268C6.21807 0.812978 5.34176 0.989005 4.5278 1.33545C3.80505 1.62498 3.15031 2.06147 2.60507 2.61727C2.06085 3.1786 1.62277 3.83382 1.31201 4.55124C1.02807 5.38281 0.857876 6.24895 0.806033 7.12612V15.874C0.796588 16.7579 0.968804 17.6343 1.31201 18.4489C1.60859 19.1739 2.04838 19.8317 2.60507 20.3828C3.16175 20.9246 3.81355 21.3592 4.5278 21.6646C5.36041 21.9466 6.22578 22.1204 7.10268 22.1819H15.873C16.7576 22.1871 17.6339 22.0111 18.4479 21.6646C19.1706 21.3751 19.8254 20.9386 20.3706 20.3828C20.9325 19.8241 21.3895 19.169 21.7199 18.4489C22.0034 17.6167 22.1773 16.7511 22.2371 15.874V7.12612C22.2437 6.24139 22.0676 5.36483 21.7199 4.55124ZM20.2469 15.874C20.2514 16.539 20.1174 17.1976 19.8534 17.8079C19.6802 18.2789 19.4209 18.7136 19.0888 19.0898C18.7399 19.4655 18.2915 19.7345 17.7957 19.8656C17.1694 20.0578 16.5252 20.1858 15.873 20.2479H7.10268C6.44275 20.2494 5.78912 20.1194 5.17995 19.8656C4.70624 19.6859 4.26836 19.4232 3.88689 19.0898C3.51262 18.7461 3.24688 18.3006 3.1223 17.8079C2.92504 17.1785 2.79317 16.5304 2.72876 15.874V7.12612C2.7226 6.46098 2.8567 5.802 3.1223 5.19215C3.2955 4.72118 3.55478 4.28652 3.88689 3.91033C4.23256 3.53059 4.68221 3.2608 5.17995 3.1345C5.80484 2.9367 6.44966 2.80849 7.10268 2.7522H15.873C16.5335 2.74506 17.1882 2.87525 17.7957 3.1345C18.2695 3.31419 18.7073 3.57691 19.0888 3.91033C19.4631 4.25402 19.7288 4.69953 19.8534 5.19215C20.0519 5.82126 20.1838 6.46947 20.2469 7.12612V15.874Z" fill="#004B98"/>
<path d="M15.0976 11.5001C15.0775 12.448 14.6919 13.3516 14.0215 14.0221C13.351 14.6925 12.4474 15.0781 11.4995 15.0982C10.7847 15.1004 10.0853 14.8903 9.49001 14.4946C8.89474 14.0988 8.43038 13.5352 8.1558 12.8753C7.88123 12.2153 7.80881 11.4886 7.94771 10.7875C8.08662 10.0863 8.43061 9.44212 8.93606 8.93667C9.44151 8.43122 10.0857 8.08723 10.7868 7.94832C11.488 7.80942 12.2147 7.88184 12.8747 8.15641C13.5346 8.43099 14.0982 8.89535 14.494 9.49062C14.8897 10.0859 15.0998 10.7853 15.0976 11.5001Z" fill="#004B98"/>
<path d="M19.8538 5.19218C19.7293 4.69956 19.4635 4.25405 19.0893 3.91037C18.7078 3.57694 18.2699 3.31422 17.7962 3.13453C17.1887 2.87528 16.5339 2.7451 15.8735 2.75223H7.10313C6.4501 2.80852 5.80529 2.93673 5.1804 3.13453C4.68266 3.26083 4.23301 3.53062 3.88734 3.91037C3.55522 4.28655 3.29595 4.72121 3.12275 5.19218C2.85714 5.80203 2.72305 6.46101 2.72921 7.12616V15.874C2.79361 16.5305 2.92549 17.1785 3.12275 17.808C3.24733 18.3006 3.51307 18.7461 3.88734 19.0898C4.26881 19.4232 4.70669 19.6859 5.1804 19.8656C5.78957 20.1195 6.44319 20.2494 7.10313 20.2479H15.8735C16.5257 20.1859 17.1699 20.0578 17.7962 19.8656C18.2919 19.7346 18.7403 19.4655 19.0893 19.0898C19.4214 18.7136 19.6806 18.2789 19.8538 17.808C20.1179 17.1976 20.2519 16.539 20.2474 15.874V7.12616C20.1843 6.4695 20.0524 5.82129 19.8538 5.19218ZM11.4995 17.0321C10.7728 17.0351 10.0526 16.894 9.38068 16.6169C8.70879 16.3398 8.09849 15.9322 7.58509 15.4178C7.07169 14.9034 6.66539 14.2922 6.38966 13.6198C6.11393 12.9473 5.97426 12.2269 5.97873 11.5001C6.04298 10.0746 6.65448 8.72873 7.68596 7.74269C8.71744 6.75666 10.0894 6.20637 11.5164 6.20637C12.9434 6.20637 14.3154 6.75666 15.3469 7.74269C16.3783 8.72873 16.9898 10.0746 17.0541 11.5001C17.0601 12.2301 16.9204 12.9541 16.6431 13.6294C16.3658 14.3048 15.9566 14.9181 15.4393 15.4333C14.922 15.9485 14.3071 16.3553 13.6306 16.6298C12.9541 16.9044 12.2296 17.0411 11.4995 17.0321ZM17.1216 7.12616C16.7865 7.11449 16.469 6.97313 16.2362 6.73188C16.0033 6.49064 15.8733 6.16838 15.8735 5.83309C15.8735 5.49313 16.0085 5.1671 16.2489 4.92671C16.4893 4.68632 16.8153 4.55127 17.1553 4.55127C17.4963 4.55126 17.8235 4.68595 18.0657 4.92602C18.3078 5.16609 18.4454 5.4921 18.4483 5.83309C18.4454 6.17513 18.3082 6.50232 18.0664 6.74418C17.8245 6.98604 17.4973 7.12322 17.1553 7.12616H17.1216Z" fill="#004B98"/>
</g>
<defs>
<clipPath id="clip0_61_3259">
<rect width="21.3636" height="21.3636" fill="white" transform="translate(0.817871 0.818237)"/>
</clipPath>
</defs>
</svg>

<svg width="23" height="23" fill="none" xmlns="http://www.w3.org/2000/svg"><g clip-path="url(#a)" fill="#004B98"><path d="M21.72 4.551a5.711 5.711 0 0 0-1.35-1.934 6.32 6.32 0 0 0-1.922-1.282 9.782 9.782 0 0 0-2.575-.517h-8.77a6.477 6.477 0 0 0-2.575.517 5.622 5.622 0 0 0-1.923 1.282 6.477 6.477 0 0 0-1.293 1.934 9.748 9.748 0 0 0-.506 2.575v8.748c-.01.884.163 1.76.506 2.575a5.824 5.824 0 0 0 1.293 1.934 6.319 6.319 0 0 0 1.923 1.282c.832.282 1.698.455 2.575.517h8.77c.885.005 1.76-.17 2.575-.517a5.622 5.622 0 0 0 1.923-1.282 6.62 6.62 0 0 0 1.349-1.934 10.12 10.12 0 0 0 .517-2.575V7.126a6.43 6.43 0 0 0-.517-2.575Zm-1.473 11.323a4.79 4.79 0 0 1-.394 1.934 4.048 4.048 0 0 1-.764 1.282 2.71 2.71 0 0 1-1.293.776c-.627.192-1.27.32-1.923.382h-8.77a4.97 4.97 0 0 1-1.923-.382 4.262 4.262 0 0 1-1.293-.776 2.609 2.609 0 0 1-.765-1.282 9.602 9.602 0 0 1-.393-1.934V7.126a4.734 4.734 0 0 1 .393-1.934c.174-.47.433-.905.765-1.282a2.62 2.62 0 0 1 1.293-.776 8.906 8.906 0 0 1 1.923-.382h8.77a4.767 4.767 0 0 1 1.923.383c.474.18.911.442 1.293.775.374.344.64.79.764 1.282.199.63.33 1.277.394 1.934v8.748Z"/><path d="M15.098 11.5a3.677 3.677 0 0 1-3.599 3.598 3.61 3.61 0 1 1 3.599-3.598Z"/><path d="M19.854 5.192a2.608 2.608 0 0 0-.765-1.282 4.262 4.262 0 0 0-1.293-.775 4.768 4.768 0 0 0-1.922-.383h-8.77a8.906 8.906 0 0 0-1.924.383 2.62 2.62 0 0 0-1.293.775c-.332.377-.591.811-.764 1.282-.266.61-.4 1.269-.394 1.934v8.748c.065.656.196 1.304.394 1.934.124.493.39.938.764 1.282.382.333.82.596 1.293.776.61.253 1.263.383 1.923.382h8.77a9.674 9.674 0 0 0 1.923-.382 2.71 2.71 0 0 0 1.293-.776c.332-.376.592-.811.765-1.282.264-.61.398-1.269.393-1.934V7.126a9.416 9.416 0 0 0-.393-1.934ZM11.5 17.032A5.498 5.498 0 0 1 5.978 11.5a5.543 5.543 0 0 1 11.075 0 5.487 5.487 0 0 1-5.554 5.532Zm5.622-9.906a1.293 1.293 0 0 1-1.248-1.293 1.282 1.282 0 0 1 1.281-1.282 1.293 1.293 0 0 1 1.293 1.282 1.304 1.304 0 0 1-1.293 1.293h-.033Z"/></g><defs><clipPath id="a"><path fill="#fff" transform="translate(.818 .818)" d="M0 0h21.364v21.364H0z"/></clipPath></defs></svg>
